public/icons/java.svg

<svg width="45" height="61" viewBox="0 0 45 61" fill="none" xmlns="http://www.w3.org/2000/svg">
<path d="M14.7904 46.3881C14.7904 46.3881 12.4841 47.7906 16.3935 48.1918C21.0997 48.7918 23.6066 48.6925 28.8154 47.6912C29.8622 48.3323 30.9694 48.8692 32.121 49.2943C20.4022 54.3043 5.57099 48.9943 14.7885 46.3881H14.7904ZM13.2904 39.8762C13.2904 39.8762 10.7854 41.7793 14.6929 42.1825C19.8022 42.6831 23.8091 42.7825 30.7241 41.3818C31.3966 42.0639 32.22 42.5783 33.1279 42.8837C19.0016 47.0912 3.17287 43.285 13.2904 39.8781V39.8762ZM40.941 51.295C40.941 51.295 42.6435 52.6975 39.0379 53.8C32.3254 55.8062 10.8866 56.4062 4.87537 53.8C2.77162 52.9 6.77849 51.5968 8.06287 51.3962C9.36599 51.0962 10.0691 51.0962 10.0691 51.0962C7.76287 49.4931 -5.25901 54.4018 3.45787 55.8025C27.4016 59.71 47.1379 54.1 40.926 51.295H40.941ZM15.8741 33.0625C15.8741 33.0625 4.95412 35.6687 11.9666 36.5687C14.9722 36.97 20.8822 36.8687 26.3929 36.4693C30.9004 36.0681 35.4116 35.2693 35.4116 35.2693C35.4116 35.2693 33.8085 35.9706 32.706 36.6718C21.5872 39.5781 0.245991 38.275 6.35849 35.2693C11.5672 32.7643 15.876 33.0662 15.876 33.0662L15.8741 33.0625ZM35.4116 43.9825C46.6316 38.17 41.4229 32.5637 37.8154 33.2631C36.9154 33.4637 36.5122 33.6643 36.5122 33.6643C36.5122 33.6643 36.8122 33.0643 37.5135 32.8637C44.6272 30.3587 50.2372 40.3768 35.2072 44.2825C35.2072 44.2825 35.3066 44.1831 35.4079 43.9825H35.4116ZM16.9804 59.8112C27.7991 60.5125 44.331 59.41 44.7304 54.2987C44.7304 54.2987 43.9297 56.305 35.8147 57.805C26.5972 59.5075 15.1766 59.305 8.46412 58.2062C8.46412 58.2062 9.86662 59.4062 16.9804 59.8093V59.8112Z" fill="#3174B9"/>
<path d="M28.6159 0.00195312C28.6159 0.00195312 34.8278 6.3132 22.7059 15.8307C12.9878 23.5445 20.5028 27.9526 22.7059 32.9626C16.9947 27.8532 12.8884 23.3438 15.6934 19.1382C19.7997 12.9245 31.1209 9.93758 28.6159 0.00195312ZM25.4284 28.7551C28.3347 32.0607 24.6278 35.0663 24.6278 35.0663C24.6278 35.0663 32.0415 31.2601 28.6347 26.5501C25.5297 22.0426 23.1222 19.8376 36.1478 12.3245C36.1478 12.3245 15.6109 17.4338 25.4284 28.7551Z" fill="#CA3132"/>
</svg>

<svg width="45" height="61" fill="none" xmlns="http://www.w3.org/2000/svg"><path d="M14.79 46.388s-2.306 1.403 1.604 1.804c4.706.6 7.213.5 12.421-.5a18.784 18.784 0 0 0 3.306 1.602c-11.719 5.01-26.55-.3-17.333-2.906h.002Zm-1.5-6.512s-2.505 1.903 1.403 2.306c5.11.501 9.116.6 16.031-.8a6.112 6.112 0 0 0 2.404 1.502c-14.126 4.207-29.955.401-19.838-3.006v-.002Zm27.651 11.419s1.703 1.402-1.903 2.505c-6.713 2.006-28.151 2.606-34.163 0-2.103-.9 1.903-2.203 3.188-2.404 1.303-.3 2.006-.3 2.006-.3-2.306-1.603-15.328 3.306-6.611 4.707 23.944 3.907 43.68-1.703 37.468-4.508h.015ZM15.874 33.062s-10.92 2.607-3.907 3.507c3.005.401 8.915.3 14.426-.1 4.507-.4 9.019-1.2 9.019-1.2s-1.603.702-2.706 1.403C21.587 39.578.246 38.275 6.358 35.269c5.21-2.505 9.518-2.203 9.518-2.203l-.002-.004Zm19.538 10.92c11.22-5.812 6.01-11.418 2.403-10.719-.9.2-1.303.401-1.303.401s.3-.6 1.002-.8c7.113-2.505 12.723 7.513-2.307 11.419 0 0 .1-.1.2-.3h.005ZM16.98 59.813c10.82.7 27.351-.402 27.75-5.513 0 0-.8 2.006-8.915 3.506-9.218 1.703-20.638 1.5-27.35.401 0 0 1.402 1.2 8.515 1.603v.002Z" fill="#3174B9"/><path d="M28.616.002s6.212 6.311-5.91 15.829c-9.718 7.713-2.203 12.122 0 17.132-5.711-5.11-9.818-9.62-7.013-13.825C19.8 12.924 31.121 9.938 28.616.002Zm-3.188 28.753c2.907 3.306-.8 6.311-.8 6.311s7.413-3.806 4.007-8.516c-3.105-4.507-5.513-6.712 7.513-14.226 0 0-20.537 5.11-10.72 16.431Z" fill="#CA3132"/></svg>
